**kern
*MM76
*k[f#]
*M4/4
=1
1r
=2
1r
=3
8r
8E
4E
8r
8E
4E
=4
8r
8E
8BB
8C#
8D
8F#
8BB
8C#
=5
8D
8D#
8E
8EE
8FF#
8F#
8G
8G#
=6
8A
8G
8F#
8E
4D#
8r
8D#
=7
4E
8r
8D#
4E
8r
8D#
=8
8E
16BB
16AA
8GG
8BB
8EE
16C
16GG
8AA
8BB
=9
8C
8BB
4AA
8BB
16B
16A
8G
8F#
=10
4E 4B
8r
8A
4G
8r
8F#
=11
4E
16r
16E
16D
16C#
4BB
16r
16G
16F#
16E
=12
8F#
8E
4F#
2r
=13
1r
=14
1r
=15
1r
=16
1r
=17
1r
=18
1r
=19
8r
8B
4B
8r
8B
4B
=20
8r
8B
8E
8F#
8G
8B
8E
8F#
=21
8G
16B
16G
[4c
8c]
16B
16c
4A
=22
4G
4G
8a
16G
16A
4F#
=23
4.E
8F#
8G
16A
16G
8F#
8A
=24
4G
8r
8B
4c
8r
8d
=25
4e
8r
8e
4d
8r
8e
=26
4d
8r
8e
8f#
8c#
8d
16c#
16B
=27
8A#
4B
8A#
4B
8r
8d#
=28
4e
8r
8d#
4e
8r
8d#
=29
4e
8r
8d
[4c
8c]
16F#
16D#
=30
[4G
8G]
16E
16C#
[4F#
8F#]
16D#
16BB
=31
[4E
8E]
16G
16E
8A
8B
8c
16B
16A
=32
[4B
16B]
16c
16B
16A
8G#
8E
8A
8G
=33
8F#
8E
8D#
8E
4B
8r
8A
*
=34
4G
8r
8G
4F#
4r
=35
8r
8F#
8E
8A
8G
[8F#
8F#]
8A
=36
1E
==
*-
